X:1
T:Angelus ad Virginem
T:Angelus ad Virginem
T:Anon.
C:Anon.
%%score [ 1 2 3 ]
L:1/8
Q:1/4=110
M:6/8
K:G
V:1 treble nm="Soprano"
V:2 treble nm="Alto"
V:3 bass nm="Bass"
V:1
 d2 B d2 d | c2 B A2 A | B2 G AG F | G3 G3 | d2 B d2 d | c2 B A2 A | B2 G AG F | G3 G3 | A3 c2 c | %9
w: An- ge- lus ad|Vir- gi- nem Sub-|in- trans in _ con-|cla- ve,|Vir- gi- nis for-|mi- di- nem De-|mul- cens, in- * quit|"A- ve!|A- ve Re-|
 B2 G AB A | G3 A3 | c2 c B2 G | AG A D3 | E F2 G2 F | E2 D G2 E | GA B BAG | A2 D E2 =F | %17
w: gi- na Vir- * gi-|num! Coe-|li ter- rae- que|Do- * mi- num|Con- * ci- pi-|es, Et pa- ri-|es _ In- tac- * *|ta Sa- lu- tem|
 ED C D3 | E F2 G2 E | GA B BAG | A2 D E2 =F | ED C D3 |] %22
w: ho- * mi- num;|Tu _ Por- ta|Coe- * li fac- * *|ta, Me- de- la|Cri- * mi- num."|
V:2
 B,2 B, B,2 B, | A,2 D D2 D | E2 C DC B, | C/B,/A,B, C3 | B,2 B, B,2 B, | A,2 D D2 D | E2 C DC B, | %7
w: An- ge- lus ad|Vir- gi- nem Sub-|in- trans in _ con-|cla- * * * ve,|Vir- gi- nis for-|mi- di- nem De-|mul- cens, in- * quit|
 C/B,/A,B, C3 | E F2 G2 G | E2 C D/C/B, D | C3 E F2 | G2 G E2 C | DC D D3 | C B,2 C2 B, | %14
w: "A- * * * ve!|A- * ve Re-|gi- na Vir- * * gi-|num! Coe- *|li ter- rae- que|Do- * mi- num|Con- * ci- pi-|
 CA, B, C2 A, | CD E EDC | D2 B, A,B, C | A,G, F, G,3 | A, B,2 C2 A, | CD E EDC | D2 B, A,2 _B, | %21
w: es, _ Et pa- ri-|es _ In- tac- * *|ta Sa- lu- * tem|ho- * mi- num;|Tu _ Por- ta|Coe- * li fac- * *|ta Me- de- la|
 A,G, F, G,3 |] %22
w: Cri- * mi- num."|
V:3
 G,2 G, G,2 D, | =F,2 G, D,2 D, | G,2 E, =F,E, D, | E,C,D, C,3 | G,2 G, G,2 D, | =F,2 G, D,2 D, | %6
w: An- ge- lus ad|Vir- gi- nem Sub-|in- trans in _ con-|cla- * * ve,|Vir- gi- nis for-|mi- di- nem De-|
 G,2 E, =F,E, D, | E,C,D, C,3 | A,, D,2 C,2 C, | G,2 E, =F,G, F, | C,3 A,, D,2 | C,2 C, G,2 E, | %12
w: mul- cens, in- * quit|"A- * * ve!|A- * ve Re-|gi- na Vir- * gi-|num! Coe- *|li ter- rae- que|
 D,E, D, A,3 | E, D,2 C,2 D, | C,2 B,, E,2 C, | E,D, G, G,=F,E, | D,2 G,, A,,G,, =F,, | %17
w: Do- * mi- num|Con- * ci- pi-|es, Et pa- ri-|es _ In- tac- * *|ta Sa- lu- * tem|
 A,,_B,, A,, G,,3 | C, D,2 E,2 C, | E,D, G, G,=F,E, | D,2 G,, C,2 D, | C,B,, A,, G,,3 |] %22
w: ho- * mi- num;|Tu _ Por- ta|Coe- * li fac- * *|ta Me- de- la|Cri- * mi- num."|

